outputs/icons/action/settings_round.svg

<svg width="1200" height="1200" viewBox="0 0 1200 1200" fill="none" xmlns="http://www.w3.org/2000/svg"><g clip-path="url(#clip0_217_692)"><path d="M975.01 600C975.01 588.5 974.51 577.5 973.51 566L1066.51 495.5C1086.51 480.5 1092.01 452.5 1079.51 430.5L986.01 269C973.51 247 946.51 238 923.51 248L816.01 293.5C797.51 280.5 778.01 269 757.51 259.5L743.01 144C740.01 119 718.51 100 693.51 100H507.01C481.508 100 460.008 119 457.007 144L442.507 259.5C422.007 269 402.507 280.5 384.007 293.5L276.507 248C253.507 238 226.507 247 214.007 269L120.507 431C108.007 453 113.508 480.5 133.507 496L226.507 566.5C225.508 577.5 225.007 588.5 225.007 600C225.007 611.5 225.508 622.5 226.507 634L133.507 704.5C113.508 719.5 108.007 747.5 120.507 769.5L214.007 931C226.507 953 253.507 962 276.507 952L384.007 906.5C402.507 919.5 422.007 931 442.507 940.5L457.007 1056C460.008 1081 481.508 1100 506.51 1100H693.01C718.01 1100 739.51 1081 742.51 1056L757.01 940.5C777.51 931 797.01 919.5 815.51 906.5L923.01 952C946.01 962 973.01 953 985.51 931L1079.01 769.5C1091.51 747.5 1086.01 720 1066.01 704.5L973.01 634C974.51 622.5 975.01 611.5 975.01 600ZM602.01 775C505.51 775 427.008 696.5 427.008 600C427.008 503.5 505.51 425 602.01 425C698.51 425 777.01 503.5 777.01 600C777.01 696.5 698.51 775 602.01 775Z" fill="#1D1E23"/></g><defs><clipPath id="clip0_217_692"><path width="24" fill="white" d="M0 0H1200V1200H0V0z"/></clipPath></defs></svg>

<svg xmlns="http://www.w3.org/2000/svg" width="1200" height="1200" fill="none"><g clip-path="url(#a)"><path fill="#000" d="M975.01 600c0-11.5-.5-22.5-1.5-34l93-70.5c20-15 25.5-43 13-65L986.01 269c-12.5-22-39.5-31-62.5-21l-107.5 45.5c-18.5-13-38-24.5-58.5-34L743.01 144c-3-25-24.5-44-49.5-44h-186.5c-25.502 0-47.002 19-50.003 44l-14.5 115.5c-20.5 9.5-40 21-58.5 34l-107.5-45.5c-23-10-50-1-62.5 21l-93.5 162c-12.5 22-6.999 49.5 13 65l93 70.5c-.999 11-1.5 22-1.5 33.5s.501 22.5 1.5 34l-93 70.5c-19.999 15-25.5 43-13 65l93.5 161.5c12.5 22 39.5 31 62.5 21l107.5-45.5c18.5 13 38 24.5 58.5 34l14.5 115.5c3.001 25 24.501 44 49.503 44h186.5c25 0 46.5-19 49.5-44l14.5-115.5c20.5-9.5 40-21 58.5-34l107.5 45.5c23 10 50 1 62.5-21l93.5-161.5c12.5-22 7-49.5-13-65l-93-70.5c1.5-11.5 2-22.5 2-34m-373 175c-96.5 0-175.002-78.5-175.002-175S505.51 425 602.01 425s175 78.5 175 175-78.5 175-175 175"/></g><defs><clipPath id="a"><path fill="#fff" d="M0 0h1200v1200H0z"/></clipPath></defs></svg>
